assets/Gear/Flat/gear_flat.svg

<svg width="32" height="32" viewBox="0 0 32 32" fill="none" xmlns="http://www.w3.org/2000/svg">
<path d="M12.8472 3.83391C12.9336 2.79732 13.8001 2 14.8403 2H17.1597C18.1999 2 19.0664 2.79732 19.1528 3.83391L19.3882 6.6587C19.422 7.06373 19.8992 7.2614 20.2095 6.99887L22.3734 5.16789C23.1674 4.49599 24.3439 4.54493 25.0795 5.28045L26.7196 6.92056C27.4551 7.65608 27.504 8.8326 26.8321 9.62666L25.0012 11.7905C24.7386 12.1008 24.9363 12.578 25.3413 12.6118L28.1661 12.8472C29.2027 12.9336 30 13.8001 30 14.8403V17.1597C30 18.1999 29.2027 19.0664 28.1661 19.1528L25.3413 19.3882C24.9363 19.422 24.7386 19.8992 25.0012 20.2095L26.8321 22.3733C27.504 23.1674 27.4551 24.3439 26.7196 25.0794L25.0795 26.7196C24.3439 27.4551 23.1674 27.504 22.3734 26.8321L20.2095 25.0011C19.8992 24.7386 19.422 24.9363 19.3882 25.3413L19.1528 28.1661C19.0664 29.2027 18.1999 30 17.1597 30H14.8403C13.8001 30 12.9336 29.2027 12.8472 28.1661L12.6118 25.3413C12.578 24.9363 12.1008 24.7386 11.7905 25.0012L9.62666 26.8321C8.8326 27.504 7.65608 27.4551 6.92056 26.7196L5.28045 25.0795C4.54493 24.3439 4.496 23.1674 5.16789 22.3734L6.99888 20.2095C7.26141 19.8992 7.06373 19.422 6.65871 19.3882L3.83391 19.1528C2.79732 19.0664 2 18.1999 2 17.1597V14.8403C2 13.8001 2.79732 12.9336 3.83391 12.8472L6.65871 12.6118C7.06373 12.578 7.2614 12.1008 6.99888 11.7905L5.16789 9.62664C4.496 8.83258 4.54493 7.65606 5.28045 6.92054L6.92056 5.28043C7.65608 4.54491 8.8326 4.49597 9.62666 5.16787L11.7905 6.99884C12.1008 7.26137 12.578 7.06369 12.6118 6.65867L12.8472 3.83391ZM21 16C21 13.2386 18.7614 11 16 11C13.2386 11 11 13.2386 11 16C11 18.7614 13.2386 21 16 21C18.7614 21 21 18.7614 21 16Z" fill="#B4ACBC"/>
<path d="M24 16C24 20.4183 20.4183 24 16 24C11.5817 24 8 20.4183 8 16C8 11.5817 11.5817 8 16 8C20.4183 8 24 11.5817 24 16ZM20.5 16C20.5 13.5147 18.4853 11.5 16 11.5C13.5147 11.5 11.5 13.5147 11.5 16C11.5 18.4853 13.5147 20.5 16 20.5C18.4853 20.5 20.5 18.4853 20.5 16Z" fill="#998EA4"/>
<path d="M10.5 16C10.5 12.9624 12.9624 10.5 16 10.5C19.0376 10.5 21.5 12.9624 21.5 16C21.5 19.0376 19.0376 21.5 16 21.5C12.9624 21.5 10.5 19.0376 10.5 16ZM21 16C21 13.2386 18.7614 11 16 11C13.2386 11 11 13.2386 11 16C11 18.7614 13.2386 21 16 21C18.7614 21 21 18.7614 21 16Z" fill="#CDC4D6"/>
</svg>

<svg xmlns="http://www.w3.org/2000/svg" width="32" height="32" fill="none"><path fill="#B4ACBC" d="M12.847 3.834A2 2 0 0 1 14.84 2h2.32a2 2 0 0 1 1.993 1.834l.235 2.825a.5.5 0 0 0 .821.34l2.164-1.831a2 2 0 0 1 2.706.112l1.64 1.64a2 2 0 0 1 .113 2.707l-1.83 2.163a.5.5 0 0 0 .34.822l2.824.235A2 2 0 0 1 30 14.84v2.32a2 2 0 0 1-1.834 1.993l-2.825.235a.5.5 0 0 0-.34.821l1.831 2.164a2 2 0 0 1-.112 2.706l-1.64 1.64a2 2 0 0 1-2.707.113l-2.164-1.83a.5.5 0 0 0-.82.34l-.236 2.824A2 2 0 0 1 17.16 30h-2.32a2 2 0 0 1-1.993-1.834l-.235-2.825a.5.5 0 0 0-.822-.34l-2.163 1.831a2 2 0 0 1-2.706-.112l-1.64-1.64a2 2 0 0 1-.113-2.707l1.83-2.164a.5.5 0 0 0-.34-.82l-2.824-.236A2 2 0 0 1 2 17.16v-2.32a2 2 0 0 1 1.834-1.993l2.825-.235a.5.5 0 0 0 .34-.822L5.168 9.627A2 2 0 0 1 5.28 6.92l1.64-1.64a2 2 0 0 1 2.707-.113l2.163 1.83a.5.5 0 0 0 .822-.34l.235-2.824ZM21 16a5 5 0 1 0-10 0 5 5 0 0 0 10 0Z"/><path fill="#998EA4" d="M24 16a8 8 0 1 1-16 0 8 8 0 0 1 16 0Zm-3.5 0a4.5 4.5 0 1 0-9 0 4.5 4.5 0 0 0 9 0Z"/><path fill="#CDC4D6" d="M10.5 16a5.5 5.5 0 1 1 11 0 5.5 5.5 0 0 1-11 0ZM21 16a5 5 0 1 0-10 0 5 5 0 0 0 10 0Z"/></svg>
